X:1
T:Go Ye, to Israel
T:Go Ye, to Israel
T:Arranged by Sarah L. Squire, 1910
T:Public Domain Courtesy of the Cyber Hymnal™
T:Public Domain Courtesy of the Cyber Hymnal™
Z:Public Domain
Z:Courtesy of the Cyber Hymnal™
%%score ( 1 2 ) ( 3 4 )
L:1/8
Q:1/4=110
M:4/4
K:A
V:1 treble 
V:2 treble 
V:3 bass 
V:4 bass 
V:1
 !fermata![Ec][EB] | [FA]3 [^EG] [FA]2 [DF]2 | [CE]4 [EA]4 | [EB]3 E [EA]2 [EB]2 | [Ec]6 [Ec][EB] | %5
w: 1.~Ho! ye|hunt- ers through- out|Zi- on,|Haste ye to the|prey; Go ye,|
w: 2.~Ho! ye|fish- ers through- out|Zi- on,|Go ye now and|fish; O- ver|
w: 3.~Go ye,|through- out cru- el|Rus- sia;|And to In- dia’s|strand, Through- out|
w: 4.~Go ye,|through- out Ma- ce-|don- ia,|Heed the out- stretched|arm, For the|
w: 5.~He- brew|child- ren have for-|sak- en|Cov- ’nants of their|God— And His|
w: 6.~Yea, the|fig tree now is|bud- ding—|Sum- mer draw- eth|nigh, And the|
w: 7.~Days of|grace are swift- ly|glid- ing;|Time shall be no|more, When the|
w: 8.~Zi- on|long has been down-|trod- den|By the Gen- tile|race; Fa- ther|
 [FA]3 [DF] [FA]2 [DF]2 | [CE]4 [CA]4 | [EB]3 [EA] [Ec]2 [DB]2 | [CA]6 [Ec]2 | %9
w: to the Fa- ther’s|chos- en,|Go while now ye|may. In-|
w: sea and land so|brave- ly,|Search— this is His|wish. In|
w: Chi- na and through|A- sia,|Pal- es- tine so|grand. Through|
w: tribes are hast- ening|on- ward;|Go, there’s naught to|harm. Haste~ye|
w: eye is ever o’er|them; Hast-|en— on- ward trod.|The rem-|
w: mid- night cry is|near- ing;|To God’s peo- ple|fly. Ere|
w: wit- ness is com-|plet- ed,|To Him you will|soar. Then|
w: prom- ised to re-|store it|Thro’ the means of|grace. And|
 ([Ee]2 [Ee]2) [Ec]2 [Ee]2 | [FA]4 [EA]2 [EB]2 | [Ec]4 [DB]2 [Ec]2 | E6 [CA]2 | %13
w: iqui- * ty has|ru- ined These|child- ren of|God, And|
w: caves * of the|mount- ains, And|lands o’er the|sea, Mes-|
w: Egypt * and As-|syr- ia, And|Af- ric’s burn-|ing sand,|
w: to * south- ern|clim- ates, And|north through the|States; O|
w: nant * He now|call- eth Of|this grand old|race, To|
w: long~the * trump- et|sound- eth, Ja-|cob tried will|be; The|
w: haste~ye * to the|bat- tle; His|blest Word ful-|fill— To|
w: Abram’s * seed will|set- tle All|the land now|trod; O|
 [FA]2 [FA]2 [DF]2 [FA]2 | E4 [CA]4 | [EB]3 [EA] [Ec]2 [DB]2 | [CA]6 |] %17
w: scat- tered with the|hea- then|Blind, they on- ward|plod.|
w: si- ah in- ter-|cedes to|Set His peo- ple|free.|
w: O haste ye and|bring them,|Back to their own|land.|
w: ha- ste, for their|turn- ing,|Je- sus now a-|waits.|
w: trust His Word by|faith; and|Come to Him thro’|grace.|
w: trib- u- la- tion|o- ver,|Je- sus they will|see.|
w: Ju- dah take the|mess- age—|“Who- so- ev- er|will.”|
w: bring them as a|pre- sent|To the mount of|God.|
V:2
 x2 | x8 | x8 | x3 E x4 | x8 | x8 | x8 | x8 | x8 | x8 | x8 | x8 | E6 x2 | x8 | E4 x4 | x8 | x6 |] %17
V:3
 !fermata![A,,A,][C,A,] | [D,A,]3 [D,A,] [D,D]2 [D,A,]2 | [A,,A,]4 [A,,C]4 | %3
 [E,D]3 [E,D] [E,C]2 [E,G,]2 | [A,,A,]6 [A,,A,][C,A,] | [D,A,]3 [D,A,] [D,A,]2 [D,A,]2 | %6
 [A,,A,]4 [A,,A,]4 | [E,D]3 [E,C] [E,A,]2 [E,G,]2 | [A,,A,]6 A,2 | [A,C]2 [A,C]2 A,2 [G,B,]2 | %10
 [F,C]4 [C,A,]2 [B,,G,]2 | [A,,A,]4 [A,,A,]2 [A,,A,]2 | [C,A,]6 [A,,A,]2 | %13
 [D,A,]2 [D,A,]2 [D,A,]2 [D,A,]2 | [C,A,]4 [F,A,]4 | [E,D]3 [E,C] [E,A,]2 [E,G,]2 | [A,,A,]6 |] %17
V:4
 x2 | x8 | x8 | x8 | x8 | x8 | x8 | x8 | x6 A,2 | x4 A,2 x2 | x8 | x8 | x8 | x8 | x8 | x8 | x6 |] %17

